svg/fluentui-system-icons/ic_fluent_slide_add_24_regular.svg

<svg width="24" height="24" viewBox="0 0 24 24" fill="none" xmlns="http://www.w3.org/2000/svg">
<path d="M2 6.75C2 5.23122 3.23122 4 4.75 4H19.25C20.7688 4 22 5.23122 22 6.75V12.8096C21.5557 12.3832 21.051 12.0194 20.5 11.7322V6.75C20.5 6.05964 19.9404 5.5 19.25 5.5H4.75C4.05964 5.5 3.5 6.05964 3.5 6.75V17.25C3.5 17.9404 4.05964 18.5 4.75 18.5H11.0764C11.1572 19.0232 11.3004 19.5258 11.4982 20H4.75C3.23122 20 2 18.7688 2 17.25V6.75ZM23 17.5C23 14.4624 20.5376 12 17.5 12C14.4624 12 12 14.4624 12 17.5C12 20.5376 14.4624 23 17.5 23C20.5376 23 23 20.5376 23 17.5ZM18.0006 18L18.0011 20.5035C18.0011 20.7797 17.7773 21.0035 17.5011 21.0035C17.225 21.0035 17.0011 20.7797 17.0011 20.5035L17.0006 18H14.4961C14.22 18 13.9961 17.7762 13.9961 17.5C13.9961 17.2239 14.22 17 14.4961 17H17.0005L17 14.4993C17 14.2231 17.2239 13.9993 17.5 13.9993C17.7761 13.9993 18 14.2231 18 14.4993L18.0005 17H20.503C20.7792 17 21.003 17.2239 21.003 17.5C21.003 17.7762 20.7792 18 20.503 18H18.0006Z" fill="#212121"/>
</svg>

<svg xmlns="http://www.w3.org/2000/svg" width="24" height="24"><path d="M2 6.75A2.75 2.75 0 0 1 4.75 4h14.5A2.75 2.75 0 0 1 22 6.75v6.06a6.518 6.518 0 0 0-1.5-1.078V6.75c0-.69-.56-1.25-1.25-1.25H4.75c-.69 0-1.25.56-1.25 1.25v10.5c0 .69.56 1.25 1.25 1.25h6.326c.081.523.224 1.026.422 1.5H4.75A2.75 2.75 0 0 1 2 17.25V6.75ZM23 17.5a5.5 5.5 0 1 0-11 0 5.5 5.5 0 0 0 11 0Zm-5 .5.001 2.503a.5.5 0 1 1-1 0V18h-2.505a.5.5 0 1 1 0-1H17v-2.5a.5.5 0 1 1 1 0V17h2.503a.5.5 0 1 1 0 1h-2.502Z"/></svg>
